X:14244
T:Rheinlnder (Schottisch) 
C:Sepp Pichler 
S:collection Elisabeth und Christoph Huspeka
A:Sinabelkirchen. 
Z:abc transcription Simon Wascher
N:please mail errors to: simon.wascher@chello.at
M:2/4
L:1/16
K:G
BABc d2BG|e2e2 d3G|e2e2 d3B|cBAc B2G2|
BABc d2BG|e2e2 d3G|e2e2 d2GB|AcAFG4:|
K:C
|:G2c2 cBcd|c2B2 B3A|GABc d2B2|cedc BdcA|
G2c2 cBcd|c2B2 B3A|GABc dedB|c2e2c4:|
